X: 1
T: Marquis Of Waterford, The
M: 4/4
L: 1/8
R: hornpipe
K: Gmaj
DF|GFGA GBdf|gGFG EGDG|C2ed cBAG|(3FGA (3GFE DcBA|
GFGA Gdef|gGFG EGDG|CEAc BAGF|A2G2 G2:|
|:Bc|dBgB dBce|dBgB dBce|dBed cBAG|(3FGA (3GFE DcBA|
GFGA Gdef|gGFG EGce|dBGB AFDF|A2G2 G2:|
